proprietary/assets/icons/status/waarschuwing.svg

<svg width="48" height="43" viewBox="0 0 48 43" fill="none" xmlns="http://www.w3.org/2000/svg">
<path fill-rule="evenodd" clip-rule="evenodd" d="M27.3404 2.93999L46.7604 37.28C48.2004 39.84 46.3604 43 43.4404 43H4.58041C1.64041 43 -0.199592 39.84 1.24041 37.28L20.6604 2.93999C22.1404 0.33999 25.8804 0.33999 27.3404 2.93999ZM21.8001 30.66C21.3201 31.26 21.0801 32.02 21.0801 32.9C21.0801 33.92 21.3401 34.68 21.8401 35.18C22.3401 35.7 23.0801 35.96 24.0401 35.96C25.0201 35.96 25.7401 35.66 26.2201 35.08C26.7001 34.5 26.9401 33.76 26.9401 32.9C26.9401 31.86 26.6801 31.08 26.1801 30.54C25.6801 30.02 24.9401 29.74 23.9801 29.74C23.0001 29.74 22.2801 30.04 21.8001 30.66ZM26.6601 11.96L21.7001 12.36H21.6801V28.34L26.2201 28.24V22.98L26.6601 11.96Z" fill="#FFB612"/>
</svg>

<svg xmlns="http://www.w3.org/2000/svg" width="48" height="43" xmlns:v="https://vecta.io/nano"><path d="M27.34 2.938l19.422 34.34C48.199 39.84 46.359 43 43.441 43H4.582c-2.941 0-4.781-3.16-3.34-5.723L20.66 2.938c1.48-2.598 5.219-2.598 6.68 0zM21.801 30.66c-.48.598-.719 1.359-.719 2.242 0 1.016.258 1.777.758 2.277.5.52 1.242.781 2.199.781.98 0 1.699-.301 2.18-.879s.723-1.32.723-2.18c0-1.039-.262-1.82-.762-2.363-.5-.52-1.238-.797-2.199-.797-.98 0-1.699.297-2.18.918zm4.859-18.699l-4.961.398h-.02v15.98l4.539-.102V22.98zm0 0" fill-rule="evenodd" fill="rgb(100%,71.372549%,7.058824%)"/></svg>
